contributed-vectors/withings_health_mate.svg

<svg width="192" height="192" viewBox="0 0 192 192" fill="none" xmlns="http://www.w3.org/2000/svg">
<g clip-path="url(#clip0)">
<g clip-path="url(#clip1)">
<path fill-rule="evenodd" clip-rule="evenodd" d="M96.15 165.3L159.55 101.9C177.05 84.5 177.05 56.3 159.75 38.8C142.25 21.4 114.05 21.4 96.65 38.8L96.2768 39.1733C88.3193 31.144 77.3186 26.1182 65.1194 25.9404L64.5537 25.9404C39.9464 25.9404 20.006 45.8808 19.9352 70.5588C19.9352 85.3213 27.1373 98.4295 38.2132 106.555C36.3003 105.174 34.4722 103.622 32.75 101.9L96.15 165.3Z" fill="url(#paint0_angular)"/>
</g>
</g>
<defs>
<radialGradient id="paint0_angular" cx="0" cy="0" r="1" gradientUnits="userSpaceOnUse" gradientTransform="translate(64.6117 70.5589) rotate(-45) scale(44.5911)">
<stop offset="0.0001" stop-color="#98DC9A"/>
<stop offset="0.5" stop-color="#96DFD3"/>
<stop offset="1" stop-color="#728DBE"/>
</radialGradient>
<clipPath id="clip0">
<rect width="192" height="192" fill="white"/>
</clipPath>
<clipPath id="clip1">
<rect width="153" height="139.6" fill="white" transform="translate(20 26)"/>
</clipPath>
</defs>
</svg>

<svg xmlns="http://www.w3.org/2000/svg" width="192" height="192" fill="none"><g clip-path="url(#a)"><g clip-path="url(#b)"><path fill="url(#c)" fill-rule="evenodd" d="m96.15 165.3 63.4-63.4c17.5-17.4 17.5-45.6.2-63.1-17.5-17.4-45.7-17.4-63.1 0l-.373.373A44.643 44.643 0 0 0 65.119 25.94h-.565c-24.608 0-44.548 19.94-44.619 44.619 0 14.762 7.202 27.87 18.278 35.996a44.876 44.876 0 0 1-5.463-4.655l63.4 63.4Z" clip-rule="evenodd"/></g></g><defs><clipPath id="a"><path fill="#fff" d="M0 0h192v192H0z"/></clipPath><clipPath id="b"><path fill="#fff" d="M20 26h153v139.6H20z"/></clipPath><radialGradient id="c" cx="0" cy="0" r="1" gradientTransform="rotate(-45 117.478 -42.714) scale(44.5911)" gradientUnits="userSpaceOnUse"><stop offset="0" stop-color="#98DC9A"/><stop offset=".5" stop-color="#96DFD3"/><stop offset="1" stop-color="#728DBE"/></radialGradient></defs></svg>
